X:1
T:Title
%%score { 1 | ( 2 3 ) }
L:1/8
M:4/4
K:C
V:1 treble nm="Grand Piano"
V:2 bass 
V:3 bass 
V:1
 z4 z[Q:1/4=84] GGF | E3 E E[CF][CG][CA] | [B,G]2 [G,B,D]2 z ddc | B3 A GFE[FA] | [EG]2 z2 z BBc | %5
 d3 c BAG[DF] |[M:17/16] [DF]/-[DF]/-[DF]-<[DF][CE][CE]3/2[Ec]GE |[M:4/4] D3 D AG F>B, | %8
[M:13/8] C- C3 z z z z z z z z2 |[M:4/4] [A,CF]4 [G,CE]4 |] %10
V:2
 z4 z [C,E,C][C,E,C][C,A,C] | [C,G,C]3 [C,G,C] [C,G,C][A,,F,][G,,E,][F,,F,] | %2
 z z/ F/ G,,2 z[K:treble] [G,B,D][G,B,D][G,CE] | %3
 [G,DF]3 [G,CF][K:bass] [G,B,D][G,B,D][C,G,C][C,C] | [C,C]2 z2 z[K:treble] [G,D][G,D][G,CE] | %5
 [G,B,F]3 [G,E][K:bass] [G,D][F,G,B,][E,G,C][B,,G,] | %6
[M:17/16] [C,G,]/-[C,G,]/-[C,G,]/-[C,G,]/-[C,G,]-<[C,G,][C,G,]3/2[C,G,][E,G,C][C,G,C] | %7
[M:4/4] [F,A,]3 [F,G,B,] [F,G,B,][E,G,C] [D,G,B,]>[G,,F,G,] | %8
[M:13/8] [C,E,G,]- [C,E,G,]3 z z z z z z z z2 |[M:4/4] F,,4 C,4 |] %10
V:3
 x8 | x8 | [G,,D,]2 z2 z4[K:treble] | x4[K:bass] x4 | x5[K:treble] x3 | x4[K:bass] x4 | %6
[M:17/16] x17/2 |[M:4/4] x8 |[M:13/8] x13 |[M:4/4] x8 |] %10

